X: 2042
Q: "[Play every Strain twice.]"
M: 3/2
L: 1/8
K: Gm
|:\
g3de2 d2c3d | B3AG2 d3=ef2 | =e2f3g ^f3=ed2 :: a3gfe c2f4 | d3cBA G2c2F2 | B3cde
c2B2f2 | d3dg2 =e3ea2 | ^f3=ed2 b3ag2 | a2^f3g  g6 :: B2cBAG d2d2g2 | =e2e^fg2 ^fg^f=edc |
g2def2 | c2cde2 B2Bcd2 | cBA3G G6- :: G2def2 c2cde2 | B2Bc d2cB | A3G G4 |]


